X:3736
T:Loch and Quay
O:england
M:C
L:1/8
C:Martin Stillion
K:DMix
"G"DGFG "G"ABAG | "D"FGAG "D"FDEF | "G"DGFG "Am"ABAa |"C"gedc "G"BG G2|
"G"DGFG "G"ABAG | "D"FGAG "D"FDEF |"G"DGFG "Am"ABAa |[1 "A"ged^c "D"d3z:
|[2
"A"ged^c "D"d2 ag||
"D"fefg "A"fed^c|"E"def^g "A"a2 ab|"Am"c'aef "Em"geBc |"D"dcBA "G"G2E2|
"G"DGFG "G"ABAG | "D"FGAG "D"FDEF | "G"DGFG "Am"ABAa |[1 "A"ged^c "D"d2
ag:|[2 "A"ged^c "D"d3z||
